X:1
T:Title
%%score 1 2 3
L:1/8
Q:1/4=120
M:4/4
K:Db
V:1 treble nm="小提琴, Vln. " snm="Vln."
V:2 treble nm="钢琴" snm="Pno."
V:3 bass nm="钢琴" snm="Pno."
V:1
 z4 z2 z A, | D2 D2 D2 D2 | D2 E2 E3 A, | D2 D2 D2 D2 | D2 F2 E4 | D2 B2 A2 D2 | D2 B2 A3 D | %7
w: |||||||
 D2 B2 A2 D2 | D2 B2 A3 A, | D2 D2 D2 D2 | D2 E2 E3 A, | D2 D2 D2 D2 | D2 F2 E3 D | D2 B2 A2 D2 | %14
w: |||||||
 D2 B2 A3 D | D2 B2 A2 D2 | D2 B2 A3 F | E3 F E3 F | D6 z F | E3 F E3 F | D6 z A, | D2 D2 D2 D2 | %22
w: ||||||||
 D2 E2 E3 A, | D2 D2 D2 D2 | D2 F2 E3 D | D2 B2 A2 D2 | D2 B2 A3 D | D2 B2 A2 D2 | D2 B2 A3 A, | %29
w: |||||||
 D2 D2 D2 D2 | D2 E2 E3 A, | D2 D2 D2 D2 | D2 F2 E3 D | D2 B2 A2 D2 | D2 B2 A3 D | D2 B2 A2 D2 | %36
w: |||||||
 D2 B2 A3 F | E3 F E3 F | D6 z F | E3 F E3 F | D6 dc | B3 A A3 A | e2 ef feed | d2 ba fede- | %44
w: ||||||||
 eded d2 dc | B3 A A3 A | e2 ef feed | d2 ba fede- | eded feed | d2 AB A2 FE- | EDED FEED | %51
w: |||||||
 D2 A,B, A,2 z2 | z8 | z8 | z8 | z8 | z4 z2 d'c' | b3 a a3 a | e'2 e'f' f'e'e'd' | %59
w: ||||||||
 d'2 b'a' f'e'd'e'- | e'd'e'd' d'2 d'c' | b3 a a3 a | e'2 e'f' f'e'e'd' | d'2 b'a' f'e'd'e'- | %64
w: |||||
 e'd'e'd' d'2 d'c' | b3 a a3 a | e'2 e'f' f'e'e'd' | d'2 b'a' f'e'd'e' | e'd'e'd' d'2 d'c' | %69
w: |||* * * * 8va\-~ * *||
 b3 a a3 a | e'2 e'f' f'e'e'd' | d'2 b'a' f'e'd'e'- | e'd'e'd' f'e'e'd' | d'2 ab a2 fe- | %74
w: |||* * * 8va\-~ * * * *||
 eded feed | d2 AB A2 FE | z4 z2 z A | B3 d- d2 fe- | eded fafe | e d2 b a2 fe- | e6- ed | z8 | %82
w: ||||||||
 z8 | z8 | z8 | z8 |] %86
w: ||||
V:2
 z8 | z8 | z8 | z8 | z8 | z8 | z8 | z8 | z8 | DABd DABd | DABd Efed | DABd DABd | DABd Efed | %13
 Defa Aefa | Defa Afed | Defa Aefa | Defa Afed | z8 | z8 | z8 | z8 | DABd DABd | DABd Efed | %23
 DABd DABd | DABd Efed | Defa Aefa | Defa Afed | Defa Aefa | Defa Afed | DABd DABd | DABd Efed | %31
 DABd DABd | DABd Efed | Defa Aefa | Defa Afed | Defa Aefa | Defa Afed | z8 | z8 | z8 | z8 | %41
 gbc'd' fac'd' | ad'e'f' ba'f'e' | gbc'd' fac'd' | ad'e'f' ba'f'e' | gbc'd' fac'd' | %46
 ad'e'f' ba'f'e' | gbc'd' fac'd' | ad'e'f' ba'f'e' | gbc'd' fac'd' | ad'e'f' ba'f'e' | %51
 gbc'd' fac'd' | ad'e'f' ba'f'e' | gbc'd' fac'd' | ad'e'f' ba'f'e' | gbc'd' fac'd' | %56
 ad'e'f' ba'f'e' | [GBg]bc'd' [FAf]ac'd' | [ea]d'[ee'][ff'] [fb]a'f'e' | %59
 [DGd]B[cb][da] [Af]ed[Ae]- | [Ae][Bd][ce][Bd] [Bd]2 [Bd]c | [GBg]bc'd' [FAf]ac'd' | %62
 [ea]d'[ee'][ff'] [fb]a'f'e' | [DGd]B[cb][da] [Af]ed[Ae]- | [Ae][Bd][ce][Bd] [Bd]2 [dd'][cc'] | %65
 [dd']2 [Bb]2 [Aa]2 [dd']2 | [ee']2 [dd']2 [ff']2 [ee']2 | [dd']2 [bd'b']2 [aa']2 [ff']2 | %68
 [ee']2 [_f_f']2 [=f=f']2 [ee']2 | [dd']2 [Bb]2 [Aa]2 [dd']2 | [ee']2 [dd']2 [ff']2 [ee']2 | %71
 [dd']2 [bd'b']2 [ad'a']2 [d''f'']2 | [e'e'']2 [d'd'']2 [f'a'f'']2 [e'e'']2 | %73
 d''2 [bb']2 [aa']2 [ff']2 | [ee']2 [dd']2 [ff']2 [ee']2 | [dd']2 [Bb]2 [Aa]2 [Ff]2 | %76
 [Ee]2 [Dd]2 [Ff]2 z A | [GB]3 d [Ad]2 fe- | eded fa _f/=f/e | e d2 b a2 fe- | e6- ed | %81
 [Gd]Bcd FAcd | Adef Bafe | GBcd FAcd | Adef Bafe- | e8 |] %86
V:3
 z8 | D,,2 D,,2 F,,2 .F,,2 | G,,2 G,,2 A,,2 A,,2 | D,,2 D,,2 F,,2 .F,,2 | G,,2 G,,2 A,,2 A,,2 | %5
w: |||||
 B,,2 B,,2 F,,2 F,,2 | G,,2 G,,2 A,,2 A,,2 | B,,2 B,,2 F,,2 F,,2 | G,,2 G,,2 A,,2 A,,,2 | %9
w: ||||
 D,,2 D2 F,,2 D2 | G,,2 E2 A,,2 z A, | D,,2 D2 F,,2 D2 | G,,2 F2 A,,2 z D | %13
w: ||||
 B,,2[K:treble] B2[K:bass] F,,2 D2 | G,,2[K:treble] B2[K:bass] A,,2 z D | %15
w: ||
 B,,2[K:treble] B2[K:bass] F,,2 D2 | G,,2[K:treble] B2[K:bass] A,,2 z2 | G,,2 G,,2 G,,2 G,,2 | %18
w: |||
 F,,2 F,,2 D,,2 A,,2 | G,,2 G,,2 G,,2 G,,2 | D,,2 D,,2 D,,,4 | D,,2 D2 F,,2 D2 | %22
w: ||||
 G,,2 E2 A,,2 z A, | D,,2 D2 F,,2 DD | G,,2 F2 A,,2 z D | B,,2[K:treble] B2[K:bass] F,,2 D2 | %26
w: ||||
 G,,2[K:treble] B2[K:bass] A,,2 z D | B,,2[K:treble] B2[K:bass] F,,2 D2 | %28
w: ||
 G,,2[K:treble] B2[K:bass] A,,2 z A, | D,,2 D2 F,,2 D2 | G,,2 E2 A,,2 z A, | D,,2 D2 F,,2 D2 | %32
w: ||||
 G,,2 F2 A,,2 z D | B,,2[K:treble] B2[K:bass] F,,2 D2 | G,,2[K:treble] B2[K:bass] A,,2 z D | %35
w: |||
 B,,2[K:treble] B2[K:bass] F,,2 D2 | G,,2[K:treble] B2[K:bass] A,,2 z2 | G,,2 G,,2 G,,2 G,,2 | %38
w: |||
 F,,2 F,,2 D,,2 A,,2 | G,,2 G,,2 G,,2 G,,2 | D,,2 D,,2 D,,,4 | %41
w: |||
 [G,G]2 [DG][K:bass]G, [D,D]2 [A,D]D, | [A,A]2 [EA]A, [B,B]2 [FB]B, | %43
w: ||
 [G,G]2 [DG][K:bass]G, [D,D]2 [A,D]D, | [A,,A,]2 [E,A,]2 [A,,A,]2 [D,D][C,C] | %45
w: ||
 [G,G]2 [DG][K:bass]G, [D,D]2 [A,D]D, | [A,A]2 [EA]A, [B,B]2 [FB]B, | %47
w: ||
 [G,G]2 [DG][K:bass]G, [D,D]2 [A,D]D, | [A,,A,]2 [E,A,]2 [A,,A,]2 [D,D][C,C] | %49
w: ||
 [G,G]2 [DG][K:bass]G, [D,D]2 [A,D]D, | [A,A]2 [EA]A, [B,B]2 [FB]B, | %51
w: ||
 [G,G]2 [DG][K:bass]G, [D,D]2 [A,D]D, | [A,A]2 [EA]A, [B,B]2 [FB]B, | %53
w: ||
 [G,G]2 [DG][K:bass]G, [D,D]2 [A,D]D, | [A,A]2 [EA]A, [B,B]2 [FB]B, | %55
w: ||
 [G,G]2 [DG][K:bass]G, [D,D]2 [A,D]D, | [A,,A,]2 [E,A,]2 [A,,A,]2[K:treble] [Dd][Cc] | %57
w: ||
 [G,,,G,,]D,, G,,2 [D,,D,]2 D,[FA] | [A,,A,]2 [A,,A,]2 [B,,B,]2[K:treble] [Ee][Dd] | %59
w: ||
 [G,,G,]D,G,D, [D,,D,]A,, D,2 | [A,,A,][K:treble]DEF[K:bass] [B,,B,][K:treble]AFE | %61
w: ||
 [G,,G,]D,G,D, [D,,D,]2 D,[FA] | [A,,A,]2 [A,,A,]2 [B,,B,]2[K:treble] [Ee][Dd] | %63
w: ||
 [G,,G,]D,G,D, [D,,D,]A,, D,2 | [A,,A,][K:treble]DEF[K:bass] [B,,B,]F,B,F, | %65
w: ||
 [G,,G,]D, z G, [D,,D,]A,, z D, | [A,,A,]E, z A, [B,,B,]F,[A,,A,]E, | %67
w: ||
 [G,,G,]D, z G, [D,,D,]A,, z D, | [A,,A,]E,[=A,,=A,]_F, [B,,B,]=F,[_A,,_A,]E, | %69
w: ||
 [G,,G,]D, z G, [D,,D,]A,, z D, | [A,,A,]E, z A, [B,,B,]F,[A,,A,]E, | %71
w: ||
 [G,,G,]D,G,D, [D,,D,]A,,D,A,, | [A,,A,]E, z A, [B,,B,]F,[A,,A,]E, | %73
w: ||
 [G,,G,]D, z G, [D,,D,]A,, z D, | [A,,A,]E, z A, [B,,B,]F,[A,,A,]E, | %75
w: ||
 [G,,G,]D, z G, [D,,D,]A,, z D, | [A,,A,]E, z2 [B,,B,]2[K:treble] [Ee]2 | [G,,G,]B,CD [F,,F,]A,CD | %78
w: ||8va\-~ * * * * * * *|
 [A,,A,][K:treble]DEF[K:bass] [B,,B,][K:treble]AFE | [G,,G,]B,CD [F,,F,]A,CD | %80
w: 8va\-~ * * * * * * *||
 [A,,A,][K:treble]DEF[K:bass] [B,,B,][K:treble]AFE | [G,,G,]2 [D,G,]G,, [D,,D,]2 [A,,D,]D,, | %82
w: ||
 [A,,A,]2 [E,A,]A,, [B,,B,]2 [F,B,]B,, | G,,D, G,2 D,,A,, D,2 | A,,E, A,2 B,, F,2 B,- | B,8 |] %86
w: 8va\-~ * * * * *||||

